public/images/skills/python.svg

<?xml version="1.0" encoding="UTF-8" standalone="no"?>
<svg
   xmlns:dc="http://purl.org/dc/elements/1.1/"
   xmlns:cc="http://creativecommons.org/ns#"
   xmlns:rdf="http://www.w3.org/1999/02/22-rdf-syntax-ns#"
   xmlns:svg="http://www.w3.org/2000/svg"
   xmlns="http://www.w3.org/2000/svg"
   xmlns:xlink="http://www.w3.org/1999/xlink"
   xmlns:sodipodi="http://sodipodi.sourceforge.net/DTD/sodipodi-0.dtd"
   xmlns:inkscape="http://www.inkscape.org/namespaces/inkscape"
   version="1.0"
   id="svg2"
   sodipodi:version="0.32"
   inkscape:version="1.0.2 (e86c8708, 2021-01-15)"
   sodipodi:docname="python-logo-only.svg"
   width="83.371017pt"
   height="101.00108pt"
   inkscape:export-filename="python-logo-only.png"
   inkscape:export-xdpi="232.44"
   inkscape:export-ydpi="232.44">
  <metadata
     id="metadata371">
    <rdf:RDF>
      <cc:Work
         rdf:about="">
        <dc:format>image/svg+xml</dc:format>
        <dc:type
           rdf:resource="http://purl.org/dc/dcmitype/StillImage" />
        <dc:title></dc:title>
      </cc:Work>
    </rdf:RDF>
  </metadata>
  <sodipodi:namedview
     inkscape:window-height="900"
     inkscape:window-width="1440"
     inkscape:pageshadow="2"
     inkscape:pageopacity="0.0"
     guidetolerance="10.0"
     gridtolerance="10.0"
     objecttolerance="10.0"
     borderopacity="1.0"
     bordercolor="#666666"
     pagecolor="#ffffff"
     id="base"
     inkscape:zoom="5.4526686"
     inkscape:cx="47.771977"
     inkscape:cy="52.795588"
     inkscape:window-x="0"
     inkscape:window-y="25"
     inkscape:current-layer="svg2"
     width="210mm"
     height="40mm"
     units="mm"
     inkscape:showpageshadow="2"
     inkscape:pagecheckerboard="0"
     inkscape:deskcolor="#d1d1d1"
     inkscape:document-units="pt"
     showgrid="false"
     inkscape:window-maximized="0"
     inkscape:document-rotation="0" />
  <defs
     id="defs4">
    <linearGradient
       id="linearGradient2795">
      <stop
         style="stop-color:#b8b8b8;stop-opacity:0.49803922;"
         offset="0"
         id="stop2797" />
      <stop
         style="stop-color:#7f7f7f;stop-opacity:0;"
         offset="1"
         id="stop2799" />
    </linearGradient>
    <linearGradient
       id="linearGradient2787">
      <stop
         style="stop-color:#7f7f7f;stop-opacity:0.5;"
         offset="0"
         id="stop2789" />
      <stop
         style="stop-color:#7f7f7f;stop-opacity:0;"
         offset="1"
         id="stop2791" />
    </linearGradient>
    <linearGradient
       id="linearGradient3676">
      <stop
         style="stop-color:#b2b2b2;stop-opacity:0.5;"
         offset="0"
         id="stop3678" />
      <stop
         style="stop-color:#b3b3b3;stop-opacity:0;"
         offset="1"
         id="stop3680" />
    </linearGradient>
    <linearGradient
       id="linearGradient3236">
      <stop
         style="stop-color:#f4f4f4;stop-opacity:1"
         offset="0"
         id="stop3244" />
      <stop
         style="stop-color:white;stop-opacity:1"
         offset="1"
         id="stop3240" />
    </linearGradient>
    <linearGradient
       id="linearGradient4671">
      <stop
         style="stop-color:#ffd43b;stop-opacity:1;"
         offset="0"
         id="stop4673" />
      <stop
         style="stop-color:#ffe873;stop-opacity:1"
         offset="1"
         id="stop4675" />
    </linearGradient>
    <linearGradient
       id="linearGradient4689">
      <stop
         style="stop-color:#5a9fd4;stop-opacity:1;"
         offset="0"
         id="stop4691" />
      <stop
         style="stop-color:#306998;stop-opacity:1;"
         offset="1"
         id="stop4693" />
    </linearGradient>
    <linearGradient
       x1="224.23996"
       y1="144.75717"
       x2="-65.308502"
       y2="144.75717"
       id="linearGradient2987"
       xlink:href="#linearGradient4671"
       gradientUnits="userSpaceOnUse"
       gradientTransform="translate(100.2702,99.61116)" />
    <linearGradient
       x1="172.94208"
       y1="77.475983"
       x2="26.670298"
       y2="76.313133"
       id="linearGradient2990"
       xlink:href="#linearGradient4689"
       gradientUnits="userSpaceOnUse"
       gradientTransform="translate(100.2702,99.61116)" />
    <linearGradient
       inkscape:collect="always"
       xlink:href="#linearGradient4689"
       id="linearGradient2587"
       gradientUnits="userSpaceOnUse"
       gradientTransform="translate(100.2702,99.61116)"
       x1="172.94208"
       y1="77.475983"
       x2="26.670298"
       y2="76.313133" />
    <linearGradient
       inkscape:collect="always"
       xlink:href="#linearGradient4671"
       id="linearGradient2589"
       gradientUnits="userSpaceOnUse"
       gradientTransform="translate(100.2702,99.61116)"
       x1="224.23996"
       y1="144.75717"
       x2="-65.308502"
       y2="144.75717" />
    <linearGradient
       inkscape:collect="always"
       xlink:href="#linearGradient4689"
       id="linearGradient2248"
       gradientUnits="userSpaceOnUse"
       gradientTransform="translate(100.2702,99.61116)"
       x1="172.94208"
       y1="77.475983"
       x2="26.670298"
       y2="76.313133" />
    <linearGradient
       inkscape:collect="always"
       xlink:href="#linearGradient4671"
       id="linearGradient2250"
       gradientUnits="userSpaceOnUse"
       gradientTransform="translate(100.2702,99.61116)"
       x1="224.23996"
       y1="144.75717"
       x2="-65.308502"
       y2="144.75717" />
    <linearGradient
       inkscape:collect="always"
       xlink:href="#linearGradient4671"
       id="linearGradient2255"
       gradientUnits="userSpaceOnUse"
       gradientTransform="matrix(0.562541,0,0,0.567972,-11.5974,-7.60954)"
       x1="224.23996"
       y1="144.75717"
       x2="-65.308502"
       y2="144.75717" />
    <linearGradient
       inkscape:collect="always"
       xlink:href="#linearGradient4689"
       id="linearGradient2258"
       gradientUnits="userSpaceOnUse"
       gradientTransform="matrix(0.562541,0,0,0.567972,-11.5974,-7.60954)"
       x1="172.94208"
       y1="76.176224"
       x2="26.670298"
       y2="76.313133" />
    <radialGradient
       inkscape:collect="always"
       xlink:href="#linearGradient2795"
       id="radialGradient2801"
       cx="61.518883"
       cy="132.28575"
       fx="61.518883"
       fy="132.28575"
       r="29.036913"
       gradientTransform="matrix(1,0,0,0.177966,0,108.7434)"
       gradientUnits="userSpaceOnUse" />
    <linearGradient
       inkscape:collect="always"
       xlink:href="#linearGradient4671"
       id="linearGradient1475"
       gradientUnits="userSpaceOnUse"
       gradientTransform="matrix(0.562541,0,0,0.567972,-14.99112,-11.702371)"
       x1="150.96111"
       y1="192.35176"
       x2="112.03144"
       y2="137.27299" />
    <linearGradient
       inkscape:collect="always"
       xlink:href="#linearGradient4689"
       id="linearGradient1478"
       gradientUnits="userSpaceOnUse"
       gradientTransform="matrix(0.562541,0,0,0.567972,-14.99112,-11.702371)"
       x1="26.648937"
       y1="20.603781"
       x2="135.66525"
       y2="114.39767" />
  </defs>
  <path
     style="fill:url(#linearGradient1478);fill-opacity:1"
     d="M 54.918785,9.1927421e-4 C 50.335132,0.02221727 45.957846,0.41313697 42.106285,1.0946693 30.760069,3.0991731 28.700036,7.2947714 28.700035,15.032169 v 10.21875 h 26.8125 v 3.40625 h -26.8125 -10.0625 c -7.792459,0 -14.6157588,4.683717 -16.7499998,13.59375 -2.46181998,10.212966 -2.57101508,16.586023 0,27.25 1.9059283,7.937852 6.4575432,13.593748 14.2499998,13.59375 h 9.21875 v -12.25 c 0,-8.849902 7.657144,-16.656248 16.75,-16.65625 h 26.78125 c 7.454951,0 13.406253,-6.138164 13.40625,-13.625 v -25.53125 c 0,-7.2663386 -6.12998,-12.7247771 -13.40625,-13.9374997 C 64.281548,0.32794397 59.502438,-0.02037903 54.918785,9.1927421e-4 Z m -14.5,8.21875012579 c 2.769547,0 5.03125,2.2986456 5.03125,5.1249996 -2e-6,2.816336 -2.261703,5.09375 -5.03125,5.09375 -2.779476,-1e-6 -5.03125,-2.277415 -5.03125,-5.09375 -10e-7,-2.826353 2.251774,-5.1249996 5.03125,-5.1249996 z"
     id="path1948" />
  <path
     style="fill:url(#linearGradient1475);fill-opacity:1"
     d="m 85.637535,28.657169 v 11.90625 c 0,9.230755 -7.825895,16.999999 -16.75,17 h -26.78125 c -7.335833,0 -13.406249,6.278483 -13.40625,13.625 v 25.531247 c 0,7.266344 6.318588,11.540324 13.40625,13.625004 8.487331,2.49561 16.626237,2.94663 26.78125,0 6.750155,-1.95439 13.406253,-5.88761 13.40625,-13.625004 V 86.500919 h -26.78125 v -3.40625 h 26.78125 13.406254 c 7.792461,0 10.696251,-5.435408 13.406241,-13.59375 2.79933,-8.398886 2.68022,-16.475776 0,-27.25 -1.92578,-7.757441 -5.60387,-13.59375 -13.406241,-13.59375 z m -15.0625,64.65625 c 2.779478,3e-6 5.03125,2.277417 5.03125,5.093747 -2e-6,2.826354 -2.251775,5.125004 -5.03125,5.125004 -2.76955,0 -5.03125,-2.29865 -5.03125,-5.125004 2e-6,-2.81633 2.261697,-5.093747 5.03125,-5.093747 z"
     id="path1950" />
</svg>

<svg width="112" height="113" viewBox="0 0 112 113" fill="none" xmlns="http://www.w3.org/2000/svg">
<path d="M54.9188 0.000919274C50.3351 0.0222173 45.9578 0.413137 42.1063 1.09467C30.7601 3.09917 28.7 7.29477 28.7 15.0322V25.2509H55.5125V28.6572H28.7H18.6375C10.8451 28.6572 4.02178 33.3409 1.88754 42.2509C-0.574285 52.4639 -0.68348 58.8369 1.88754 69.5009C3.79346 77.4388 8.34508 83.0947 16.1375 83.0947H25.3563V70.8447C25.3563 61.9948 33.0134 54.1884 42.1063 54.1884H68.8875C76.3425 54.1884 82.2938 48.0503 82.2938 40.5634V15.0322C82.2938 7.76583 76.1638 2.30739 68.8875 1.09467C64.2815 0.327944 59.5024 -0.020379 54.9188 0.000919274ZM40.4188 8.21967C43.1883 8.21967 45.45 10.5183 45.45 13.3447C45.45 16.161 43.1883 18.4384 40.4188 18.4384C37.6393 18.4384 35.3875 16.161 35.3875 13.3447C35.3875 10.5183 37.6393 8.21967 40.4188 8.21967Z" fill="url(#paint0_linear_227_12)"/>
<path d="M85.6377 28.6572V40.5634C85.6377 49.7942 77.8118 57.5634 68.8877 57.5634H42.1064C34.7706 57.5634 28.7002 63.8419 28.7002 71.1884V96.7197C28.7002 103.986 35.0188 108.26 42.1064 110.345C50.5938 112.84 58.7327 113.291 68.8877 110.345C75.6379 108.39 82.2939 104.457 82.2939 96.7197V86.5009H55.5127V83.0947H82.2939H95.7002C103.493 83.0947 106.396 77.6593 109.106 69.5009C111.906 61.102 111.787 53.0251 109.106 42.2509C107.181 34.4935 103.503 28.6572 95.7002 28.6572H85.6377ZM70.5752 93.3134C73.3547 93.3134 75.6064 95.5908 75.6064 98.4072C75.6064 101.234 73.3547 103.532 70.5752 103.532C67.8056 103.532 65.5439 101.234 65.5439 98.4072C65.5439 95.5908 67.8056 93.3134 70.5752 93.3134Z" fill="url(#paint1_linear_227_12)"/>
<defs>
<linearGradient id="paint0_linear_227_12" x1="-3.34028e-07" y1="-2.90161e-07" x2="61.8267" y2="52.6849" gradientUnits="userSpaceOnUse">
<stop stop-color="#5A9FD4"/>
<stop offset="1" stop-color="#306998"/>
</linearGradient>
<linearGradient id="paint1_linear_227_12" x1="69.9309" y1="97.548" x2="47.7498" y2="66.4657" gradientUnits="userSpaceOnUse">
<stop stop-color="#FFD43B"/>
<stop offset="1" stop-color="#FFE873"/>
</linearGradient>
</defs>
</svg>
